src/svg-icons/svg/room-mobile.svg

<?xml version="1.0" encoding="UTF-8" standalone="no"?>
<svg width="32px" height="32px" viewBox="0 0 32 32" version="1.1" xmlns="http://www.w3.org/2000/svg" xmlns:xlink="http://www.w3.org/1999/xlink">
    <!-- Generator: Sketch 3.7.2 (28276) - http://www.bohemiancoding.com/sketch -->
    <title>Artboard 1</title>
    <desc>Created with Sketch.</desc>
    <defs></defs>
    <g id="Page-1" stroke="none" stroke-width="1" fill="none" fill-rule="evenodd">
        <path d="M11,9.0000061 L10.4,9.0000061 L10.4,9.6000061 L10.4,21.4000063 L10.4,22.0000063 L11,22.0000063 L21,22.0000063 L21.6,22.0000063 L21.6,21.4000063 L21.6,9.6000061 L21.6,9.0000061 L21,9.0000061 L11,9.0000061 Z M11.5,10.1999998 L20.3999996,10.1999998 L20.3999996,20.8000002 L11.5,20.8000002 L11.5,10.1999998 Z" id="Combined-Shape" fill="#000000"></path>
        <g id="Artboard-1" fill="#000000">
            <path d="M10.4000244,21.0400085 L21.6000242,21.0400085 L21.6000242,23.0400085 C21.6000242,24.144578 20.7024137,25.0400085 19.5976887,25.0400085 L12.4023599,25.0400085 C11.2965006,25.0400085 10.4000244,24.1522789 10.4000244,23.0400085 L10.4000244,21.0400085 L10.4000244,21.0400085 Z M16,24 C16.5522847,24 17,23.5522847 17,23 C17,22.4477153 16.5522847,22 16,22 C15.4477153,22 15,22.4477153 15,23 C15,23.5522847 15.4477153,24 16,24 L16,24 Z" id="Combined-Shape"></path>
            <path d="M10.4000244,8.54000854 C10.4000244,7.71158142 11.0670944,7.04000854 11.8988847,7.04000854 L20.1011639,7.04000854 C20.9289616,7.04000854 21.6000242,7.70580578 21.6000242,8.54000854 L21.6000242,10.0400085 L10.4000244,10.0400085 L10.4000244,8.54000854 L10.4000244,8.54000854 L10.4000244,8.54000854 Z M14.5,8.5 C14.5,8.22385763 14.7157526,8 14.995389,8 L17.004611,8 C17.2782068,8 17.5,8.23193359 17.5,8.5 C17.5,8.77614237 17.2842474,9 17.004611,9 L14.995389,9 C14.7217932,9 14.5,8.76806641 14.5,8.5 L14.5,8.5 L14.5,8.5 Z" id="Combined-Shape"></path>
        </g>
    </g>
</svg>

<svg width="32" height="32" viewBox="0 0 32 32" xmlns="http://www.w3.org/2000/svg"><g fill="#000" fill-rule="evenodd"><path d="M11 9h-.6v13h11.2V9H11zm.5 1.2h8.9v10.6h-8.9V10.2z"/><path d="M10.4 21.04h11.2v2c0 1.105-.898 2-2.002 2h-7.196a1.996 1.996 0 0 1-2.002-2v-2zM16 24a1 1 0 1 0 0-2 1 1 0 0 0 0 2zM10.4 8.54c0-.828.667-1.5 1.5-1.5h8.2c.83 0 1.5.666 1.5 1.5v1.5H10.4v-1.5zm4.1-.04c0-.276.216-.5.495-.5h2.01c.273 0 .495.232.495.5 0 .276-.216.5-.495.5h-2.01a.503.503 0 0 1-.495-.5z"/></g></svg>
